X:27
T:Kalapomon piros szegfű babám tőled kaptam
M:4/4
L:1/4
K:F
A<A ^G<A | B<A FD | A<G FE | D2 D2 |
e<e ^de | fecA | edc<B | A2 A2 |
d<d ^c d | ffed | =c>c d<B | A2 G2 |
AA^GA | dAF<D | AGFE | D2 D2 |

